html/dist/img/svg/car.svg

<svg width="405" height="405" viewBox="0 0 405 405" fill="none" xmlns="http://www.w3.org/2000/svg"><circle cx="202.5" cy="202.5" r="202" stroke="#fff"/><path fill-rule="evenodd" clip-rule="evenodd" d="M384.155 209.249c.113.228.23.362.427.49l.271.177 6.312.015 6.312.016.13-.128.129-.129v-7.401c0-7.253-.002-7.405-.108-7.516a.625.625 0 00-.292-.149c-.079-.015-1.832-.024-4.202-.022-.659 0-1.367.002-2.099.004l-6.117.017-.231.13c-.284.16-.539.477-.624.774-.045.161-.063 2.045-.063 6.816v6.593l.155.313zm2.403-16.448c.072.24.322.495.553.562.125.037 2.358.058 6.023.059h5.826v6.586l.208-.211c.42-.425 1.058-.77 1.78-.962.054-.015.069-.764.069-3.501v-3.482l-.292-.073c-.601-.149-1.094-.449-1.575-.96-.679-.721-.98-1.481-.975-2.461.008-1.627 1.06-3.031 2.532-3.378l.31-.073v-3.619l-.136-.144c-.132-.139-.164-.144-.893-.144-.728 0-.76.005-.892.144-.127.133-.136.185-.136.732v.589l-2.906.001c-3.219.001-3.378.015-4.041.366-.201.107-1.217.799-2.257 1.539-2.059 1.464-2.531 1.881-2.85 2.522-.355.713-.366.811-.383 3.394-.008 1.291.007 2.42.035 2.514zm2.322-5.295c.265-.304 2.912-2.229 3.065-2.229.077 0 .197.058.268.128l.129.127v2.832c0 2.753-.003 2.835-.111 2.948-.106.112-.186.118-1.693.118h-1.58l-.116-.155c-.11-.148-.115-.223-.115-1.874v-1.719l.153-.176zm10.216 23.35c.132.139.164.144.892.144.729 0 .761-.005.893-.144l.136-.144v-4.915l-.292-.073c-.535-.134-1.098-.464-1.529-.898l-.236-.237v6.123l.136.144zm-.076-8.007c.082.444.361.986.679 1.32 1.003 1.058 2.571 1.056 3.577-.004 1.327-1.399.745-3.811-1.063-4.401-.361-.118-1.088-.117-1.458.002-1.238.399-1.987 1.731-1.735 3.083zm.041-13.792c.182.683.565 1.226 1.111 1.573 1.286.819 2.939.307 3.577-1.107.608-1.348.075-2.921-1.203-3.551-1.92-.947-4.055.943-3.485 3.085zm1.283 12.714a1.37 1.37 0 01.722-.7c.484-.18.909-.075 1.294.319.839.857.194 2.318-.977 2.215-.849-.074-1.392-1.032-1.039-1.834zm-.051-13.798c.137-.518.648-.903 1.197-.903 1.23 0 1.706 1.659.689 2.401-.213.156-.277.172-.693.172-.421 0-.479-.015-.698-.177-.44-.326-.642-.936-.495-1.493z" fill="#fff"/><path d="M393.134 194.602c2.37-.002 4.123.007 4.202.022v-1.202h-4.202v1.18z" fill="#fff"/></svg>

<svg width="405" height="405" viewBox="0 0 405 405" fill="none" xmlns="http://www.w3.org/2000/svg">
<circle cx="202.5" cy="202.5" r="202" stroke="white"/>
<path fill-rule="evenodd" clip-rule="evenodd" d="M384.155 209.249C384.268 209.477 384.385 209.611 384.582 209.739L384.853 209.916L391.165 209.931L397.477 209.947L397.607 209.819L397.736 209.69L397.736 202.289C397.736 195.036 397.734 194.884 397.628 194.773C397.569 194.71 397.437 194.643 397.336 194.624C397.257 194.609 395.504 194.6 393.134 194.602C392.475 194.602 391.767 194.604 391.035 194.606L384.918 194.623L384.687 194.753C384.403 194.913 384.148 195.23 384.063 195.527C384.018 195.688 384 197.572 384 202.343L384 208.936L384.155 209.249ZM386.558 192.801C386.63 193.041 386.88 193.296 387.111 193.363C387.236 193.4 389.469 193.421 393.134 193.422C394.915 193.422 396.341 193.422 397.336 193.422C398.389 193.422 398.96 193.422 398.96 193.422L398.96 196.715L398.96 200.008L399.168 199.797C399.588 199.372 400.226 199.027 400.948 198.835C401.002 198.82 401.017 198.071 401.017 195.334L401.017 191.852L400.725 191.779C400.124 191.63 399.631 191.33 399.15 190.819C398.471 190.098 398.17 189.338 398.175 188.358C398.183 186.731 399.235 185.327 400.707 184.98L401.017 184.907L401.017 183.097L401.017 181.288L400.881 181.144C400.749 181.005 400.717 181 399.988 181C399.26 181 399.228 181.005 399.096 181.144C398.969 181.277 398.96 181.329 398.96 181.876L398.96 182.465L396.054 182.466C392.835 182.467 392.676 182.481 392.013 182.832C391.812 182.939 390.796 183.631 389.756 184.371C387.697 185.835 387.225 186.252 386.906 186.893C386.551 187.606 386.54 187.704 386.523 190.287C386.515 191.578 386.53 192.707 386.558 192.801ZM388.88 187.506C389.145 187.202 391.792 185.277 391.945 185.277C392.022 185.277 392.142 185.335 392.213 185.405L392.342 185.532L392.342 188.364C392.342 191.117 392.339 191.199 392.231 191.312C392.125 191.424 392.045 191.43 390.538 191.43L388.958 191.43L388.842 191.275C388.732 191.127 388.727 191.052 388.727 189.401L388.727 187.682L388.88 187.506ZM399.096 210.856C399.228 210.995 399.26 211 399.988 211C400.717 211 400.749 210.995 400.881 210.856L401.017 210.712L401.017 208.255L401.017 205.797L400.725 205.724C400.19 205.59 399.627 205.26 399.196 204.826L398.96 204.589L398.96 207.651L398.96 210.712L399.096 210.856ZM399.02 202.849C399.102 203.293 399.381 203.835 399.699 204.169C400.702 205.227 402.27 205.225 403.276 204.165C404.603 202.766 404.021 200.354 402.213 199.764C401.852 199.646 401.125 199.647 400.755 199.766C399.517 200.165 398.768 201.497 399.02 202.849ZM399.061 189.057C399.243 189.74 399.626 190.283 400.172 190.63C401.458 191.449 403.111 190.937 403.749 189.523C404.357 188.175 403.824 186.602 402.546 185.972C400.626 185.025 398.491 186.915 399.061 189.057ZM400.344 201.771C400.482 201.46 400.768 201.182 401.066 201.071C401.55 200.891 401.975 200.996 402.36 201.39C403.199 202.247 402.554 203.708 401.383 203.605C400.534 203.531 399.991 202.573 400.344 201.771ZM400.293 187.973C400.43 187.455 400.941 187.07 401.49 187.07C402.72 187.07 403.196 188.729 402.179 189.471C401.966 189.627 401.902 189.643 401.486 189.643C401.065 189.643 401.007 189.628 400.788 189.466C400.348 189.14 400.146 188.53 400.293 187.973Z" fill="white"/>
<path d="M393.134 194.602C395.504 194.6 397.257 194.609 397.336 194.624L397.336 193.422L393.134 193.422L393.134 194.602Z" fill="white"/>
</svg>
